X:1
M: 2/4
L: 1/4
K: D
D| "G"G/2>G/2 G/2G/2 | B3/2G/2 | "C"E/2>E/2 E/2E/2 | A3/2G/2 | "D7"FF/2E/2 | DA | "G"G2- |: GB | "G"B/2>B/2 B/2B/2 | B=c/2B/2 | "Am"A/2A/2 A/2A/2 | A2 | "D7"FG/2A/2 | Bd/2d/2 | A2- | AD | "G"G/2>G/2 G/2G/2 | B3/2G/2 | "C"E/>E/ E/2E/2 | A3/2G/2 | "D7"FF/2E/2 | DA | "G"G2 :|]
w:Komm lauf mit uns hi-naus, wir blei-ben nicht zu-haus, wir Wölf-lin-ge geh'n auf Jagd._ Im Wal-de ken-nen wir Je-de Pflan-ze, je-des Tier, hö-ren den lei-ses-ten Schritt._ Ob tro-cken o-der nass, es macht uns gro-ßen Spaß, komm mit klei-ner Wolf komm mit.